X: 18888
T: In The Hay
R: jig
M: 6/8
K: Eminor
|"Em"GFE GFE|"Bm"B3AFA|"G"d2gfed|"D"BAF DEF|
"Em"GFE GFE|"Bm" B3AFA|"G"d2gfed|"D"AFD"Em"E3:|
"Am"cBA Bcd|"C"e3gfe|"G"dBA GAB|"D7"c2Ac2A|
"Am"cBA Bcd|"C"e3gfe|"G"dBA GAB|"Am"A2EA3|
"Am"cBA Bcd|"C"e3gfe|"G"dBA GAB|"D7"c2Ac2A|
"Am"cBA Bcd|"C"e3"G"bag|"D"fed AFD|"Em"E3E3|

